resources/icons/16px/signal-search.svg

<?xml version="1.0" encoding="UTF-8"?>
<svg viewBox="0 0 16 16" version="1.1" xmlns="http://www.w3.org/2000/svg" xmlns:xlink="http://www.w3.org/1999/xlink">
    <title>Signal search</title>
    <g stroke="none" stroke-width="1" fill="none" fill-rule="evenodd">
        <path d="M5.47411829,7.97119959 C5.82200298,8.33369541 6.22105348,8.64669276 6.65978252,8.89870438 L6.66671815,8.91785368 L6.68545936,8.97409422 C6.70045234,9.01158791 6.72294179,9.03408412 6.73043828,9.07157781 L8.22973548,15.0705684 C8.3271898,15.4680015 8.08730225,15.8804321 7.682492,15.9779157 C7.28517825,16.0753993 6.87287151,15.8354397 6.7754172,15.4305078 L6.35561398,13.7507905 L5.65094429,13.7507905 L5.23114108,15.4305078 C5.13368676,15.8354397 4.72887651,16.0753993 4.32406627,15.9779157 C3.91925602,15.8804321 3.67936847,15.4755003 3.77682279,15.0705684 L5.27611999,9.07157781 C5.28361648,9.03408412 5.30610594,9.01158791 5.32109891,8.97409422 C5.33609188,8.93660053 5.33609188,8.89910683 5.35858134,8.86161314 C5.29860945,8.75663081 5.25363053,8.636651 5.25363053,8.50167371 C5.25363053,8.29545841 5.337966,8.10798995 5.47383981,7.97207532 L5.47411829,7.97119959 Z" id="Path" fill="#000000" fill-rule="nonzero"></path>
        <path d="M2.79478312,5.27721627 C3.07964959,4.97726674 3.0721531,4.50484623 2.77979015,4.21239544 C2.48742719,3.91994465 2.00765209,3.93494213 1.71528913,4.22739292 C-0.571139106,6.56699924 -0.571139106,10.4363482 1.71528913,12.7759545 C2.00765209,13.075904 2.47993071,13.075904 2.77229366,12.790952 C3.06465661,12.5059999 3.0721531,12.0260807 2.78728663,11.7336299 C1.07808782,9.9714264 1.07808782,7.03192102 2.79478312,5.27721627 L2.79478312,5.27721627 Z" id="Path" fill="#000000" fill-rule="nonzero"></path>
        <path d="M7.80821393,9.38797396 C8.28123519,9.52600132 8.78182055,9.6 9.3,9.6 C9.32924839,9.6 9.35844072,9.59976424 9.38757521,9.59929452 C9.25148032,9.98229696 9.03513573,10.3251817 8.73200005,10.5788242 C8.40965115,10.84128 7.93737253,10.7962876 7.67499552,10.4813406 C7.41261851,10.1588949 7.45759742,9.68647435 7.77244984,9.42401851 L7.80821393,9.38797396 Z" id="Path" fill="#000000" fill-rule="nonzero"></path>
        <path d="M11.54352,9.1047539 L11.922128,9.4826588 C11.730821,10.6915285 11.1848555,11.8493707 10.2837727,12.7684558 C9.99890619,13.0684053 9.52662757,13.0684053 9.22676813,12.7834532 C8.92690868,12.4985012 8.9194122,12.0185819 9.21177515,11.7261311 C9.8283417,11.0959132 10.2234628,10.3128616 10.3971385,9.48675961 C10.7977279,9.40279556 11.1817672,9.2735961 11.54352,9.1047539 Z" id="Path" fill="#000000" fill-rule="nonzero"></path>
        <path d="M4.05419277,9.42401851 C3.62689307,9.07157781 3.70185793,7.84178474 4.02420683,7.60182512 C4.35405221,7.35436676 4.42152058,6.88194625 4.17413655,6.55200177 C3.92675251,6.22205729 3.45447389,6.15456864 3.1246285,6.402027 C2.04513452,7.20439199 1.90270128,9.58149201 3.09464256,10.5788242 C3.40949497,10.84128 3.88177359,10.8037863 4.15164709,10.4813406 C4.4140241,10.1663936 4.36904518,9.68647435 4.05419277,9.42401851 Z" id="Path" fill="#000000" fill-rule="nonzero"></path>
        <path d="M9.3175736,0 C11.7020517,0 13.6351472,1.93309545 13.6351472,4.3175736 C13.6351472,4.52363961 13.6155219,4.71989295 13.5860839,4.9161463 C13.5762712,4.96520963 13.5762712,5.0044603 13.5664585,5.05352364 C13.5272079,5.24977698 13.4879572,5.43621766 13.4290812,5.62265834 L13.4290812,5.63247101 C13.3702052,5.81891169 13.2917038,5.9955397 13.2132025,6.17216771 L13.1739518,6.26048171 C13.0856378,6.43710972 12.9875112,6.60392507 12.8795718,6.77074041 L15.764496,9.65566459 C15.9018733,9.80285459 15.9901873,9.99910794 16,10.2149866 C16,10.646744 15.646744,11 15.2149866,11 C14.9892953,11 14.7930419,10.911686 14.6556646,10.7743087 L11.7707404,7.88938448 C11.6039251,7.99732382 11.4371097,8.09545049 11.2604817,8.1837645 L11.1721677,8.22301517 C10.9955397,8.3015165 10.8189117,8.38001784 10.632471,8.43889384 L10.6226583,8.43889384 C10.4362177,8.49776985 10.249777,8.54683318 10.0535236,8.57627119 C10.0044603,8.58608385 9.95539697,8.59589652 9.9161463,8.59589652 C9.71989295,8.62533452 9.52363961,8.64495986 9.3175736,8.64495986 C6.93309545,8.64495986 5,6.71186441 5,4.32738626 C5,1.94290812 6.93309545,0.00981266726 9.3175736,0 Z M9.29800125,1.1 C7.52910681,1.1 6.1,2.52910681 6.1,4.29800125 C6.1,6.06689569 7.52910681,7.4960025 9.29800125,7.4960025 C11.0668957,7.4960025 12.4960025,6.06689569 12.4960025,4.29800125 C12.4960025,2.52910681 11.0668957,1.1 9.29800125,1.1 Z" id="Shape" fill="#000000" fill-rule="nonzero"></path>
    </g>
</svg>

<svg xmlns="http://www.w3.org/2000/svg" viewBox="0 0 16 16">
  <path d="M5.474 7.971A5.3 5.3 0 0 0 6.66 8.9l.007.019.018.056c.015.038.038.06.045.098l1.5 5.999a.75.75 0 0 1-1.455.36l-.42-1.68h-.704l-.42 1.68a.746.746 0 0 1-.907.547.746.746 0 0 1-.547-.907l1.5-6c.007-.037.03-.06.044-.097.015-.037.015-.075.038-.112a.7.7 0 0 1-.105-.36c0-.207.084-.394.22-.53M2.795 5.277a.763.763 0 0 0-.015-1.065.756.756 0 0 0-1.065.015c-2.286 2.34-2.286 6.21 0 8.549a.747.747 0 1 0 1.072-1.042c-1.709-1.763-1.709-4.702.008-6.457M7.808 9.388a5.3 5.3 0 0 0 1.58.211 2.24 2.24 0 0 1-.656.98.756.756 0 0 1-1.057-.098.756.756 0 0 1 .097-1.057zM11.544 9.105l.378.378a6.02 6.02 0 0 1-1.638 3.285c-.285.3-.757.3-1.057.015a.74.74 0 0 1-.015-1.057 4.5 4.5 0 0 0 1.185-2.24q.602-.126 1.147-.381"/>
  <path d="M4.054 9.424c-.427-.352-.352-1.582-.03-1.822a.75.75 0 0 0 .15-1.05.75.75 0 0 0-1.05-.15c-1.079.802-1.221 3.18-.03 4.177a.75.75 0 1 0 .96-1.155M9.318 0a4.32 4.32 0 0 1 4.317 4.318c0 .206-.02.402-.049.598-.01.05-.01.088-.02.138-.039.196-.078.382-.137.569v.01c-.059.186-.137.363-.216.54l-.039.087a5 5 0 0 1-.294.51l2.884 2.886a.88.88 0 0 1 .236.559.787.787 0 0 1-.785.785.79.79 0 0 1-.56-.226L11.772 7.89a5 5 0 0 1-.51.295l-.089.039c-.176.079-.353.157-.54.216h-.01a4 4 0 0 1-.568.137c-.05.01-.099.02-.138.02-.196.03-.392.049-.598.049A4.32 4.32 0 0 1 5 4.327 4.33 4.33 0 0 1 9.318 0m-.02 1.1A3.195 3.195 0 0 0 6.1 4.298a3.195 3.195 0 0 0 3.198 3.198 3.195 3.195 0 0 0 3.198-3.198A3.195 3.195 0 0 0 9.298 1.1"/>
</svg>
